packages/kaspersky-hexa-ui-icons/src/iconsSVGs/48/AboutProduct.svg

<svg xmlns="http://www.w3.org/2000/svg" width="48" height="48" fill="none" viewBox="0 0 48 48"><path fill="currentColor" fill-rule="evenodd" d="M24.05 1 4 12.32v23.16l20.05 11.57L44.1 35.48V12.32zM42.1 34.32l-18 10.43L6 34.32V13.48L24.05 3.3 42.1 13.48zM12.05 24c0 6.6274 5.3726 12 12 12s12-5.3726 12-12-5.3726-12-12-12-12 5.3726-12 12m22 0c0 5.5228-4.4772 10-10 10s-10-4.4772-10-10 4.4772-10 10-10 10 4.4772 10 10m-11 5h2v2h-2zm1-11.57c2.2091 0 4 1.7909 4 4a4.83 4.83 0 0 1-1.79 3.7 3 3 0 0 0-1.21 2.3h-2a4.88 4.88 0 0 1 1.79-3.71 2.93 2.93 0 0 0 1.21-2.29c0-1.1046-.8954-2-2-2s-2 .8954-2 2h-2a4 4 0 0 1 4-4.05z" clip-rule="evenodd"/></svg>

<svg width="48" height="48" viewBox="0 0 48 48" fill="none" xmlns="http://www.w3.org/2000/svg">
<path fill-rule="evenodd" clip-rule="evenodd" d="M24.05 1L4 12.32V35.48L24.05 47.05L44.1 35.48V12.32L24.05 1ZM42.1 34.32L24.1 44.75L6 34.32V13.48L24.05 3.3L42.1 13.48V34.32ZM12.05 24C12.05 30.6274 17.4226 36 24.05 36C30.6774 36 36.05 30.6274 36.05 24C36.05 17.3726 30.6774 12 24.05 12C17.4226 12 12.05 17.3726 12.05 24ZM34.05 24C34.05 29.5228 29.5728 34 24.05 34C18.5272 34 14.05 29.5228 14.05 24C14.05 18.4772 18.5272 14 24.05 14C29.5728 14 34.05 18.4772 34.05 24ZM23.05 29H25.05V31H23.05V29ZM24.05 17.43C26.2591 17.43 28.05 19.2209 28.05 21.43C28.0341 22.8683 27.3779 24.2247 26.26 25.13C25.5283 25.6731 25.0831 26.5194 25.05 27.43H23.05C23.0699 25.9898 23.7251 24.6319 24.84 23.72C25.5771 23.186 26.0243 22.3398 26.05 21.43C26.05 20.3254 25.1546 19.43 24.05 19.43C22.9454 19.43 22.05 20.3254 22.05 21.43H20.05C20.0366 20.3605 20.4521 19.3302 21.2037 18.5692C21.9553 17.8082 22.9804 17.3799 24.05 17.38V17.43Z"  fill="currentColor"/>
</svg>
